app/dist/common/images/2u.svg

<svg height="18" width="18" xmlns="http://www.w3.org/2000/svg"><path d="m0 0h18v18h-18z" fill="#1576d4"/><g fill="#fff"><path d="m5.828 5c-2.334 0-2.828 1.742-2.828 2.56h2.065c0-.28.09-.725.763-.725.755 0 .966.699.696 1.058s-2.91 2.474-3.382 3.192.227 1.915 1.192 1.915h6.166c-1.006-.463-1.597-1.541-1.709-2h-3.03s1.28-.813 2.2-1.71c.405-.472.658-.937.673-1.397s-.005-.912-.202-1.337c-.4-.864-1.31-1.556-2.604-1.556z"/><path d="m11 5h-2v5.486c0 .898 1.04 2.514 3.104 2.514 2.21 0 2.896-1.676 2.896-2.514v-5.486h-2v5.486c0 .274-.268.738-1 .738s-1-.464-1-.738z"/></g></svg>

<!-- by TradingView --><svg width="18" height="18" xmlns="http://www.w3.org/2000/svg"><path fill="#1576D4" d="M0 0h18v18H0z"/><path d="M5.828 5C3.494 5 3 6.742 3 7.56h2.065c0-.28.09-.725.763-.725.755 0 .966.699.696 1.058-.27.359-2.91 2.474-3.382 3.192S3.369 13 4.334 13H10.5c-1.006-.463-1.597-1.541-1.709-2h-3.03s1.28-.813 2.2-1.71c.405-.472.658-.937.673-1.397.015-.46-.005-.912-.202-1.337C8.032 5.692 7.122 5 5.828 5z" fill="#fff"/><path d="M11 5H9v5.486C9 11.384 10.04 13 12.104 13 14.314 13 15 11.324 15 10.486V5h-2v5.486c0 .274-.268.738-1 .738s-1-.464-1-.738V5z" fill="#fff"/></svg>
